src/assets/icons-components/suitcase.svg

<svg width="60" height="60" viewBox="0 0 60 60" fill="none" xmlns="http://www.w3.org/2000/svg">
<path fill-rule="evenodd" clip-rule="evenodd" d="M24.25 18.25H35.75V22.25H40.75V38.75H19.25V22.25H24.25V18.25ZM25.75 22.25H34.25V19.75H25.75V22.25ZM20.75 23.75V28.75H39.25V23.75H20.75ZM39.25 30.25H32.75V32.75H27.25V30.25H20.75V37.25H39.25V30.25ZM28.75 30.25V31.25H31.25V30.25H28.75Z" fill="#2E2B26"/>
<rect x="0.5" y="0.5" width="59" height="59" stroke="#C3C2C1"/>
</svg>

<svg width="60" height="60" fill="none" xmlns="http://www.w3.org/2000/svg"><path fill-rule="evenodd" clip-rule="evenodd" d="M24.25 18.25h11.5v4h5v16.5h-21.5v-16.5h5v-4Zm1.5 4h8.5v-2.5h-8.5v2.5Zm-5 1.5v5h18.5v-5h-18.5Zm18.5 6.5h-6.5v2.5h-5.5v-2.5h-6.5v7h18.5v-7Zm-10.5 0v1h2.5v-1h-2.5Z" fill="#2E2B26"/><path stroke="#C3C2C1" d="M.5.5h59v59H.5z"/></svg>
